svgs/regular/slider.svg

<svg xmlns="http://www.w3.org/2000/svg" viewBox="0 0 512 512"><!--! Font Awesome Pro 6.6.0 by @fontawesome - https://fontawesome.com License - https://fontawesome.com/license (Commercial License) Copyright 2024 Fonticons, Inc. --><path d="M352 144c8.8 0 16 7.2 16 16l0 192c0 8.8-7.2 16-16 16l-32 0c-8.8 0-16-7.2-16-16l0-192c0-8.8 7.2-16 16-16l32 0zM320 96c-35.3 0-64 28.7-64 64l0 192c0 35.3 28.7 64 64 64l32 0c35.3 0 64-28.7 64-64l0-72 72 0c13.3 0 24-10.7 24-24s-10.7-24-24-24l-72 0 0-72c0-35.3-28.7-64-64-64l-32 0zM0 256c0 13.3 10.7 24 24 24l200 0 0-48L24 232c-13.3 0-24 10.7-24 24z"/></svg>

<svg xmlns="http://www.w3.org/2000/svg" viewBox="0 0 512 512"><!--! Font Awesome Pro 6.5.2 by @fontawesome - https://fontawesome.com License - https://fontawesome.com/license (Commercial License) Copyright 2024 Fonticons, Inc. --><path d="M352 144c8.8 0 16 7.2 16 16V352c0 8.8-7.2 16-16 16H320c-8.8 0-16-7.2-16-16V160c0-8.8 7.2-16 16-16h32zM320 96c-35.3 0-64 28.7-64 64V352c0 35.3 28.7 64 64 64h32c35.3 0 64-28.7 64-64V280h72c13.3 0 24-10.7 24-24s-10.7-24-24-24H416V160c0-35.3-28.7-64-64-64H320zM0 256c0 13.3 10.7 24 24 24H224V232H24c-13.3 0-24 10.7-24 24z"/></svg>
